X: 10
T:The Cuckoo
% Nottingham Music Database
S:McCusker Brothers
M:4/4
L:1/8
R:Hornpipe
K:G
P:A
GA|"G"BGDB "D7/a"cADc|"G"d^cde dBGF|"C"E2cB "Am"AGFG|"A7"(3ABA(3GFE "D7"D2dc|
"G"BGDB "D7/a"cADc|"G"d^cde dBGF|"C"E2cB "Am"AGFG|"D7"(3ABAGF "G"G2:|
P:B
fg|"G"bg(3gfg dgBg|"G"bg(3gfg dgBg|
"Am"c'a(3a^ga eaca|"Am"c'a(3a^ga eaca|"G"bg(3gfg dgBg|
"G"bg(3gfg dgBg|"G"b2a2 (3gagfd|[1"C"eg"D"fa "G"g2:|[2 "C" eg"D"fa "G"g2g2|<end>
<start>
